groups/alkoxy/butoxy.svg

<svg height="256" viewBox="0 0 256 256" width="256" xmlns="http://www.w3.org/2000/svg"><path d="m0 0h256v256h-256z" fill="#fff"/><g fill="none" stroke-width="2"><path d="m232.1 114.9-28 16.1" stroke="#000"/><path d="m185.8 131-27.9-16.2" stroke="#000"/><path d="m157.9 114.8-37.2 21.4" stroke="#000"/><path d="m120.7 136.2-37.1-21.4" stroke="#000"/><path d="m83.6 114.8-28 16.1" stroke="#000"/><path d="m159.3 115.6-1.4-.8-1.9 1.1" stroke="#000" stroke-miterlimit="10"/><path d="m122.6 135.1-1.9 1.1-1.8-1.1" stroke="#000" stroke-miterlimit="10"/><path d="m85.5 115.8-1.9-1-1.4.8" stroke="#000" stroke-miterlimit="10"/><path d="m221.402 96.305c-1.393.802-.323 2.659 1.07 1.857 1.392-.803 2.462 1.054 1.07 1.857-1.393.802-.323 2.659 1.07 1.856 1.392-.802 2.462 1.055 1.07 1.857-1.393.803-.323 2.66 1.07 1.857 1.392-.802 2.462 1.055 1.069 1.857-1.392.803-.322 2.659 1.07 1.857 1.393-.802 2.463 1.055 1.07 1.857-1.392.802-.322 2.659 1.07 1.857 1.393-.803 2.463 1.054 1.07 1.857-1.393.802-.323 2.659 1.07 1.857 1.392-.803 2.462 1.054 1.07 1.857-1.393.802-.323 2.659 1.07 1.856 1.392-.802 2.462 1.055 1.07 1.857-1.393.803-.323 2.66 1.07 1.857 1.392-.802 2.462 1.055 1.069 1.857-1.392.802-.322 2.659 1.07 1.857 1.393-.802 2.463 1.054 1.07 1.857-1.392.802-.322 2.659 1.07 1.857 1.393-.803 2.463 1.054 1.07 1.857" stroke="#7f7f7f"/></g><text font-family="sans-serif" font-size="25" x="187.3" y="149.1">O</text><text font-family="sans-serif" font-size="25" x="12.8" y="149">H</text><text font-family="sans-serif" font-size="16" x="30.5" y="159.3">3</text><text font-family="sans-serif" font-size="25" x="38.8" y="149">C</text></svg>

<?xml version='1.0' encoding='iso-8859-1'?>
<svg version='1.1' baseProfile='full'
              xmlns='http://www.w3.org/2000/svg'
                      xmlns:rdkit='http://www.rdkit.org/xml'
                      xmlns:xlink='http://www.w3.org/1999/xlink'
                  xml:space='preserve'
width='256px' height='256px' viewBox='0 0 256 256'>
<!-- END OF HEADER -->
<rect style='opacity:1.0;fill:#FFFFFF;stroke:none' width='256.0' height='256.0' x='0.0' y='0.0'> </rect>
<path class='bond-0 atom-0 atom-1' d='M 232.1,114.9 L 204.1,131.0' style='fill:none;fill-rule:evenodd;stroke:#000000;stroke-width:2.0px;stroke-linecap:butt;stroke-linejoin:miter;stroke-opacity:1' />
<path class='bond-1 atom-1 atom-2' d='M 185.8,131.0 L 157.9,114.8' style='fill:none;fill-rule:evenodd;stroke:#000000;stroke-width:2.0px;stroke-linecap:butt;stroke-linejoin:miter;stroke-opacity:1' />
<path class='bond-2 atom-2 atom-3' d='M 157.9,114.8 L 120.7,136.2' style='fill:none;fill-rule:evenodd;stroke:#000000;stroke-width:2.0px;stroke-linecap:butt;stroke-linejoin:miter;stroke-opacity:1' />
<path class='bond-3 atom-3 atom-4' d='M 120.7,136.2 L 83.6,114.8' style='fill:none;fill-rule:evenodd;stroke:#000000;stroke-width:2.0px;stroke-linecap:butt;stroke-linejoin:miter;stroke-opacity:1' />
<path class='bond-4 atom-4 atom-5' d='M 83.6,114.8 L 55.6,130.9' style='fill:none;fill-rule:evenodd;stroke:#000000;stroke-width:2.0px;stroke-linecap:butt;stroke-linejoin:miter;stroke-opacity:1' />
<path d='M 159.3,115.6 L 157.9,114.8 L 156.0,115.9' style='fill:none;stroke:#000000;stroke-width:2.0px;stroke-linecap:butt;stroke-linejoin:miter;stroke-miterlimit:10;stroke-opacity:1;' />
<path d='M 122.6,135.1 L 120.7,136.2 L 118.9,135.1' style='fill:none;stroke:#000000;stroke-width:2.0px;stroke-linecap:butt;stroke-linejoin:miter;stroke-miterlimit:10;stroke-opacity:1;' />
<path d='M 85.5,115.8 L 83.6,114.8 L 82.2,115.6' style='fill:none;stroke:#000000;stroke-width:2.0px;stroke-linecap:butt;stroke-linejoin:miter;stroke-miterlimit:10;stroke-opacity:1;' />
<path class='atom-1' d='M221.402,96.3048 C220.009,97.1071 221.079,98.964 222.472,98.1617 C223.864,97.3593 224.934,99.2162 223.542,100.019 C222.149,100.821 223.219,102.678 224.612,101.875 C226.004,101.073 227.074,102.93 225.682,103.732 C224.289,104.535 225.359,106.392 226.752,105.589 C228.144,104.787 229.214,106.644 227.821,107.446 C226.429,108.249 227.499,110.105 228.891,109.303 C230.284,108.501 231.354,110.358 229.961,111.16 C228.569,111.962 229.639,113.819 231.031,113.017 C232.424,112.214 233.494,114.071 232.101,114.874 C230.708,115.676 231.778,117.533 233.171,116.731 C234.563,115.928 235.633,117.785 234.241,118.588 C232.848,119.39 233.918,121.247 235.311,120.444 C236.703,119.642 237.773,121.499 236.381,122.301 C234.988,123.104 236.058,124.961 237.451,124.158 C238.843,123.356 239.913,125.213 238.52,126.015 C237.128,126.817 238.198,128.674 239.59,127.872 C240.983,127.07 242.053,128.926 240.66,129.729 C239.268,130.531 240.338,132.388 241.73,131.586 C243.123,130.783 244.193,132.64 242.8,133.443' style='fill:none;stroke:#7F7F7F;stroke-width:2.0px;stroke-linecap:butt;stroke-linejoin:miter;stroke-opacity:1' />
<text x='187.3' y='149.1' class='atom-1' style='font-size:25px;font-style:normal;font-weight:normal;fill-opacity:1;stroke:none;font-family:sans-serif;text-anchor:start;fill:#000000' >O</text>
<text x='12.8' y='149.0' class='atom-5' style='font-size:25px;font-style:normal;font-weight:normal;fill-opacity:1;stroke:none;font-family:sans-serif;text-anchor:start;fill:#000000' >H</text>
<text x='30.5' y='159.3' class='atom-5' style='font-size:16px;font-style:normal;font-weight:normal;fill-opacity:1;stroke:none;font-family:sans-serif;text-anchor:start;fill:#000000' >3</text>
<text x='38.8' y='149.0' class='atom-5' style='font-size:25px;font-style:normal;font-weight:normal;fill-opacity:1;stroke:none;font-family:sans-serif;text-anchor:start;fill:#000000' >C</text>
</svg>
